!!!COM: Bach, Johann Sebastian
!!!CDT: 1685/3//-1750/7/28/
!!!OTL@@DE: Herr Christ, der ein'ge Gott's Sohn
!!!AGN: 4-Part Chorale
!!!SCT: BH 303
!!!SCT: BWV 96
**harm	**root	**kern	**kern	**kern	**kern
!	!	!bass	!tenor	!alto	!soprno
*	*Iorgan	*Iorgan	*Iorgan	*Iorgan	*Iorgan
*M4/4	*M4/4	*M4/4	*M4/4	*M4/4	*M4/4
*met(c)	*met(c)	*met(c)	*met(c)	*met(c)	*met(c)
*MM60	*MM60	*MM60	*MM60	*MM60	*MM60
*k[b-e-]	*k[b-e-]	*k[b-e-]	*k[b-e-]	*k[b-e-]	*k[b-e-]
*B-:	*B-:	*B-:	*B-:	*B-:	*B-:
*>[A,A,B]	*>[A,A,B]	*>[A,A,B]	*>[A,A,B]	*>[A,A,B]	*>[A,A,B]
*>A	*>A	*>A	*>A	*>A	*>A
I	4FF	4B-	4d	4f	4b-
=1	=1	=1	=1	=1	=1
IV	4BB-	4E-	4e-	8g	8b-
.	.	.	.	8a	8cc
I	4FF	4B-	4f	4b-	4dd
V	4CC	4F	8f	4a	4cc
.	.	.	8e-	.	.
vi	4DD	4G	4d	4g	4b-
=2	=2	=2	=2	=2	=2
vii7b	4EE	4C	4e-	4g	2a
V/vi	4AA	4D	8d	4f#	.
.	.	.	8c	.	.
vi;	4DD;	4G;	4B-;	4d;	4g;
V/ii	4DD	4G	4g	4b	4dd
=3	=3	=3	=3	=3	=3
ii	4GG	8c	4g	8cc	4ee-
.	.	8d	.	8b-	.
V7d	4CC	4e-	4f	4a	4cc
I	4FF	8d	4f	4b-	4dd
.	.	8B-	.	.	.
V	4CC	4F	8f	4a	4cc
.	.	.	8e-	.	.
=4	=4	=4	=4	=4	=4
I;	2.FF;	2.BB-;	2.d;	2.f;	2.b-;
=:|!	=:|!	=:|!	=:|!	=:|!	=:|!
*>B	*>B	*>B	*>B	*>B	*>B
I	4FF	8B-	4d	4f	8b-
.	.	8A	.	.	8cc
=5	=5	=5	=5	=5	=5
vi	4DD	4G	4g	4b-	4dd
V7d/ii	4DD	4F	4g	4b	4dd
iib	4GG	8E-	4g	4cc	4ee-
.	.	8D	.	.	.
ii	4GG	4C	4g	4cc	4ee-
!!linebreak: 2
=6	=6	=6	=6	=6	=6
Ib	2FF	4.D	2f	4cc	2ff
.	.	.	.	4b-	.
.	.	8E-	.	.	.
V;	4CC;	4F;	4f;	4a;	4cc;
Vb	4CC	4A	4f	4cc	4ff
=7	=7	=7	=7	=7	=7
I	4FF	4B-	4f	4b-	4dd
viioD7/ii	4FF#	4B	4f	4a-	4dd
ii	4GG	4c	4e-	4g	4cc
viioD7/iii	4GG#	4c#	4e	4g	4b-
=8	=8	=8	=8	=8	=8
iii	4AA	4d	8A	4g	2a
.	.	.	8B-	.	.
V7/vi	4AA	4D	4c	4f#	.
IV;	4BB-;	4E-;	4B-;	4g;	4g;
viib/ii	4FF#	4D	4f	4b	4dd
=9	=9	=9	=9	=9	=9
ii	4GG	8C	4g	8cc	4ee-
.	.	8D	.	8b-	.
V7d	4CC	4E-	4f	4a	4cc
Ib	4FF	8D	4f	4b-	4dd
.	.	8E-	.	.	.
V	4CC	4F	8f	4a	4cc
.	.	.	8e-	.	.
=10	=10	=10	=10	=10	=10
I;	2.FF;	2.BB-;	2.d;	2.f;	2.b-;
==	==	==	==	==	==
*-	*-	*-	*-	*-	*-
!!chor2scor: -l 2 -s 0.6 -o %b.pmx
!!!YEC: Copyright 1994, David Huron
!!!YEC: Changes/Additions 2001 by Craig Stuart Sapp
!!!YEN: United States of America
!!!SMA: 371 Bach Chorales, edited by Ludwig Erk, C.F. Peters
!!!PDT: 1850, 1865
!!!ONB: Harmony and Root analysis done manually
